icons/bhi_bell.svg

<svg xmlns="http://www.w3.org/2000/svg" viewBox="0 0 512 512" enable-background="new 0 0 512 512"><path fill="#010101" d="M257.4 511.1c35.4 0 62.6-27.2 62.6-62.6h-128c2.7 32.6 30 62.6 65.4 62.6zM423.8 325.5v-108.4c0-79-52.6-142.6-127.2-160.1v-19.7c0-19.7-17.5-37.3-39.5-37.3-21.9 0-37.3 17.5-37.3 37.3v17.5c-74.5 17.6-129.4 81.2-129.4 162.3v108.4l-58.4 50.5v39.1h448v-39.1l-56.2-50.5z"/></svg>

<?xml version="1.0" encoding="utf-8"?>
<!-- Generator: Adobe Illustrator 19.2.0, SVG Export Plug-In . SVG Version: 6.00 Build 0)  -->
<svg version="1.1" id="Layer_1" xmlns="http://www.w3.org/2000/svg" xmlns:xlink="http://www.w3.org/1999/xlink" x="0px" y="0px"
	 viewBox="0 0 512 512" enable-background="new 0 0 512 512" xml:space="preserve">
<path fill="#010101" d="M257.4,511.1c35.4,0,62.6-27.2,62.6-62.6H192C194.7,481.1,222,511.1,257.4,511.1z"/>
<path fill="#010101" d="M423.8,325.5V217.1c0-79-52.6-142.6-127.2-160.1V37.3c0-19.7-17.5-37.3-39.5-37.3
	c-21.9,0-37.3,17.5-37.3,37.3v17.5C145.3,72.4,90.4,136,90.4,217.1v108.4L32,376v39.1h448V376L423.8,325.5z"/>
</svg>
